source/Icon/tips.svg

<svg width="32" height="32" viewBox="0 0 48 48" fill="none" xmlns="http://www.w3.org/2000/svg">
    <path d="M40 20C40 26.8077 35.7484 32.6224 29.7555 34.9336H24H18.2445C12.2516 32.6224 8 26.8077 8 20C8 11.1634 15.1634 4 24 4C32.8366 4 40 11.1634 40 20Z" fill="#2F88FF" stroke="#000000" stroke-width="4" stroke-linecap="round" stroke-linejoin="round"/>
    <path d="M29.7557 34.9336L29.0766 43.0831C29.0334 43.6014 28.6001 44 28.08 44H19.9203C19.4002 44 18.9669 43.6014 18.9238 43.0831L18.2446 34.9336" stroke="#000000" stroke-width="4" stroke-linecap="round" stroke-linejoin="round"/>
    <path d="M18 17V23L24 20L30 23V17" stroke="#FFF" stroke-width="4" stroke-linecap="round" stroke-linejoin="round"/>
</svg>

<svg width="48" height="48" viewBox="0 0 48 48" fill="none" xmlns="http://www.w3.org/2000/svg"><path stroke-linejoin="round" stroke-linecap="round" stroke-width="4" stroke="#333" d="M40 20c0 6.808-4.252 12.622-10.244 14.934H18.244C12.252 32.622 8 26.808 8 20c0-8.837 7.163-16 16-16s16 7.163 16 16Z"/><path stroke-linejoin="round" stroke-linecap="round" stroke-width="4" stroke="#333" d="m29.756 34.934-.68 8.15a1 1 0 0 1-.996.916h-8.16a1 1 0 0 1-.996-.917l-.68-8.15M18 17v6l6-3 6 3v-6"/></svg>
